assets/img/icons/call-top.svg

<svg width="22" height="22" viewBox="0 0 22 22" fill="none" xmlns="http://www.w3.org/2000/svg">
<path d="M11.001 0C4.92627 0 0.000976562 4.9253 0.000976562 11C0.000976562 17.0746 4.92627 22 11.001 22C17.0756 22 22.0008 17.0746 22.0008 11C22.0009 4.9253 17.0756 0 11.001 0ZM16.8097 16.0502L15.9289 16.9311C15.7717 17.0882 15.3112 17.1861 15.2965 17.1861C12.5102 17.2104 9.82739 16.116 7.85624 14.1447C5.8797 12.167 4.78399 9.47464 4.81342 6.67896C4.81342 6.67769 4.91425 6.23044 5.07136 6.07483L5.95206 5.19399C6.27434 4.87021 6.89343 4.7239 7.32711 4.86899L7.51238 4.93079C7.94479 5.07574 8.39879 5.55386 8.51827 5.99435L8.96129 7.62037C9.08076 8.06213 8.91962 8.6906 8.59743 9.01289L8.00936 9.60105C8.58673 11.7385 10.2638 13.4159 12.4017 13.9947L12.9895 13.4064C13.3133 13.0826 13.9415 12.9216 14.3823 13.0409L16.0081 13.4855C16.4487 13.6066 16.9267 14.0578 17.0716 14.49L17.1334 14.678C17.2771 15.1104 17.1319 15.7294 16.8097 16.0502Z" fill="black"/>
</svg>

<svg width="22" height="22" fill="none" xmlns="http://www.w3.org/2000/svg"><path d="M11.001 0c-6.075 0-11 4.925-11 11s4.925 11 11 11 11-4.925 11-11S17.076 0 11 0zm5.809 16.05l-.881.881c-.157.157-.618.255-.633.255a10.395 10.395 0 01-7.44-3.041 10.407 10.407 0 01-3.043-7.466c0-.001.101-.449.258-.604l.881-.881c.322-.324.941-.47 1.375-.325l.185.062c.433.145.887.623 1.006 1.063l.443 1.626c.12.442-.041 1.07-.364 1.393L8.01 9.6a6.247 6.247 0 004.393 4.394l.588-.589c.323-.323.951-.484 1.392-.365l1.626.444c.44.122.919.573 1.064 1.005l.061.188c.144.432-.001 1.051-.323 1.372z" fill="#000"/></svg>
